build/img/icon3.svg

<svg width="40" height="40" viewBox="0 0 40 40" fill="none" xmlns="http://www.w3.org/2000/svg">
<path d="M33.1391 8.68481C32.7955 8.68481 32.5169 8.9652 32.5169 9.31114V38.1211C32.5169 38.4665 32.2379 38.7475 31.8948 38.7475H7.83889C7.4958 38.7475 7.21673 38.4665 7.21673 38.1211V32.6932C7.21673 32.3473 6.93821 32.0668 6.59457 32.0668C6.25094 32.0668 5.97241 32.3472 5.97241 32.6932V38.1211C5.97241 39.1572 6.80961 40 7.83881 40H31.8949C32.924 40 33.7613 39.1572 33.7613 38.1211V9.31114C33.7613 8.9652 33.4827 8.68481 33.1391 8.68481Z" fill="white"/>
<path d="M31.8948 0H7.83887C6.80975 0 5.97247 0.842812 5.97247 1.87891V28.6848C5.97247 29.0306 6.251 29.3111 6.59463 29.3111C6.93827 29.3111 7.21679 29.0307 7.21679 28.6848V1.87891C7.21679 1.53352 7.49586 1.25258 7.83895 1.25258H31.8948C32.2379 1.25258 32.517 1.53352 32.517 1.87891V5.97078C32.517 6.31664 32.7954 6.59711 33.1391 6.59711C33.4828 6.59711 33.7613 6.31672 33.7613 5.97078V1.87891C33.7612 0.842812 32.9239 0 31.8948 0Z" fill="white"/>
<path d="M30.4846 2.67236H9.24911C8.90555 2.67236 8.62695 2.95275 8.62695 3.29869V15.9918C8.62695 16.3377 8.90548 16.6181 9.24911 16.6181H30.4847C30.8283 16.6181 31.1068 16.3378 31.1068 15.9918V3.29861C31.1068 2.95275 30.8283 2.67236 30.4846 2.67236ZM29.8625 15.3654H9.87119V3.92494H29.8624V15.3654H29.8625Z" fill="white"/>
<path d="M30.4846 18.0376H21.1941C20.8504 18.0376 20.5719 18.318 20.5719 18.6639V26.6806C20.5719 27.0265 20.8503 27.307 21.1941 27.307H30.4846C30.8282 27.307 31.1068 27.0266 31.1068 26.6806V18.6639C31.1068 18.318 30.8283 18.0376 30.4846 18.0376ZM29.8625 26.0543H21.8162V19.2903H29.8625V26.0543Z" fill="white"/>
<path d="M18.5397 18.0376H9.24911C8.90555 18.0376 8.62695 18.318 8.62695 18.6639V26.6806C8.62695 27.0265 8.90548 27.307 9.24911 27.307H18.5397C18.8832 27.307 19.1618 27.0266 19.1618 26.6806V18.6639C19.1617 18.318 18.8832 18.0376 18.5397 18.0376ZM17.9175 26.0543H9.87119V19.2903H17.9175V26.0543Z" fill="white"/>
<path d="M30.4846 28.0583H21.1941C20.8504 28.0583 20.5719 28.3387 20.5719 28.6847V36.7014C20.5719 37.0473 20.8503 37.3277 21.1941 37.3277H30.4846C30.8282 37.3277 31.1068 37.0473 31.1068 36.7014V28.6847C31.1068 28.3388 30.8283 28.0583 30.4846 28.0583ZM29.8625 36.0751H21.8162V29.311H29.8625V36.0751Z" fill="white"/>
<path d="M18.5397 28.0583H9.24911C8.90555 28.0583 8.62695 28.3387 8.62695 28.6847V36.7014C8.62695 37.0473 8.90548 37.3277 9.24911 37.3277H18.5397C18.8832 37.3277 19.1618 37.0473 19.1618 36.7014V28.6847C19.1617 28.3388 18.8832 28.0583 18.5397 28.0583ZM17.9175 36.0751H9.87119V29.311H17.9175V36.0751Z" fill="white"/>
<path d="M15.8852 22.046H14.5164V20.6681C14.5164 20.3222 14.2379 20.0417 13.8943 20.0417C13.5507 20.0417 13.2721 20.3221 13.2721 20.6681V22.046H11.9034C11.5599 22.046 11.2812 22.3264 11.2812 22.6723C11.2812 23.0182 11.5598 23.2986 11.9034 23.2986H13.2721V24.6765C13.2721 25.0224 13.5507 25.3028 13.8943 25.3028C14.2379 25.3028 14.5164 25.0225 14.5164 24.6765V23.2986H15.8852C16.2287 23.2986 16.5073 23.0182 16.5073 22.6723C16.5073 22.3264 16.2287 22.046 15.8852 22.046Z" fill="#FCDB50"/>
<path d="M27.8302 22.0459H23.8485C23.5049 22.0459 23.2264 22.3263 23.2264 22.6722C23.2264 23.0182 23.5048 23.2986 23.8485 23.2986H27.8302C28.1738 23.2986 28.4524 23.0182 28.4524 22.6722C28.4524 22.3263 28.1738 22.0459 27.8302 22.0459Z" fill="#FCDB50"/>
<path d="M14.7741 32.6932L16.325 31.1319C16.568 30.8874 16.568 30.4907 16.325 30.2462C16.082 30.0016 15.6881 30.0016 15.4452 30.2462L13.8943 31.8075L12.3434 30.2462C12.1004 30.0016 11.7065 30.0016 11.4635 30.2462C11.2206 30.4908 11.2206 30.8874 11.4635 31.1319L13.0145 32.6932L11.4635 34.2546C11.237 34.4825 11.222 34.8593 11.4304 35.1043C11.6631 35.3778 12.0902 35.395 12.3433 35.1403L13.8942 33.5789L15.4451 35.1403C15.6982 35.395 16.1254 35.3778 16.358 35.1043C16.5665 34.8593 16.5515 34.4825 16.3249 34.2546L14.7741 32.6932Z" fill="#FCDB50"/>
<path d="M28.2701 30.2462C28.0271 30.0016 27.6332 30.0016 27.3902 30.2462L23.4086 34.2546C23.0253 34.6403 23.3044 35.3237 23.8484 35.3237C24.0076 35.3237 24.1669 35.2626 24.2884 35.1403L28.2701 31.1319C28.5131 30.8873 28.5131 30.4907 28.2701 30.2462Z" fill="#FCDB50"/>
<path d="M24.952 30.9142L24.2884 30.2462C24.0454 30.0016 23.6515 30.0016 23.4086 30.2462C23.1656 30.4908 23.1656 30.8874 23.4086 31.1319L24.0721 31.7999C24.3251 32.0546 24.7524 32.0375 24.985 31.764C25.1935 31.5189 25.1786 31.1422 24.952 30.9142Z" fill="#FCDB50"/>
<path d="M28.2702 34.2543L27.6066 33.5863C27.3635 33.3417 26.9697 33.3417 26.7267 33.5863C26.4837 33.8309 26.4837 34.2275 26.7267 34.472L27.3903 35.1401C27.6433 35.3947 28.0706 35.3776 28.3032 35.1041C28.5117 34.859 28.4967 34.4823 28.2702 34.2543Z" fill="#FCDB50"/>
<path d="M28.2701 8.86809L24.2885 4.85973C24.0454 4.61512 23.6516 4.61512 23.4086 4.85973L19.4269 8.86809C19.3102 8.98551 19.2447 9.14481 19.2447 9.3109V13.9873C19.2447 14.3332 19.5232 14.6136 19.8668 14.6136H22.5213C22.865 14.6136 23.1435 14.3332 23.1435 13.9873V11.9414H24.5536V13.9873C24.5536 14.3332 24.8321 14.6136 25.1758 14.6136H27.8303C28.1739 14.6136 28.4524 14.3332 28.4524 13.9873V9.3109C28.4523 9.14489 28.3868 8.98551 28.2701 8.86809ZM27.208 13.3611H25.7979V11.3151C25.7979 10.9693 25.5194 10.6888 25.1757 10.6888H22.5212C22.1776 10.6888 21.8991 10.9692 21.8991 11.3151V13.3611H20.4889V9.57035L23.8484 6.18832L27.208 9.57035V13.3611H27.208Z" fill="#FCDB50"/>
<path d="M16.9887 5.52794C16.7457 5.28333 16.3518 5.28333 16.1089 5.52794L11.1318 10.5384C10.7485 10.9241 11.0276 11.6076 11.5717 11.6076C11.7308 11.6076 11.8901 11.5465 12.0115 11.4241L16.9886 6.41364C17.2316 6.16896 17.2316 5.77239 16.9887 5.52794Z" fill="#FCDB50"/>
<path d="M17.6523 9.53624C17.4093 9.29163 17.0154 9.29163 16.7725 9.53624L14.7817 11.5404C14.5552 11.7683 14.5401 12.1451 14.7485 12.3901C14.9812 12.6637 15.4083 12.6808 15.6614 12.4261L17.6522 10.4219C17.8953 10.1773 17.8953 9.78077 17.6523 9.53624Z" fill="#FCDB50"/>
</svg>

<svg width="40" height="40" fill="none" xmlns="http://www.w3.org/2000/svg"><path d="M33.14 8.685a.624.624 0 00-.623.626v28.81a.625.625 0 01-.622.627H7.839a.625.625 0 01-.622-.627v-5.428a.624.624 0 00-.622-.626.624.624 0 00-.623.626v5.428C5.972 39.157 6.81 40 7.84 40h24.056a1.875 1.875 0 001.866-1.879V9.311a.624.624 0 00-.622-.626zM31.895 0H7.839c-1.03 0-1.867.843-1.867 1.879v26.806c0 .346.279.626.623.626.343 0 .622-.28.622-.626V1.879c0-.345.279-.626.622-.626h24.056c.343 0 .622.28.622.626V5.97c0 .346.278.626.622.626s.622-.28.622-.626V1.879A1.875 1.875 0 0031.895 0z" fill="#fff"/><path d="M30.485 2.672H9.249a.624.624 0 00-.622.627v12.693c0 .346.278.626.622.626h21.236c.343 0 .622-.28.622-.626V3.299a.624.624 0 00-.622-.627zm-.622 12.693H9.87V3.925h19.991v11.44zm.622 2.673h-9.29a.624.624 0 00-.623.626v8.017c0 .345.278.626.622.626h9.29c.344 0 .623-.28.623-.626v-8.017a.624.624 0 00-.622-.626zm-.622 8.016h-8.047V19.29h8.047v6.764zM18.54 18.038H9.25a.624.624 0 00-.623.626v8.017c0 .345.278.626.622.626h9.29c.344 0 .623-.28.623-.626v-8.017a.624.624 0 00-.622-.626zm-.622 8.016H9.87V19.29h8.046v6.764zm12.567 2.004h-9.29a.624.624 0 00-.623.627V36.7c0 .346.278.627.622.627h9.29c.344 0 .623-.28.623-.627v-8.016a.624.624 0 00-.622-.627zm-.622 8.017h-8.047v-6.764h8.047v6.764zM18.54 28.058H9.25a.624.624 0 00-.623.627V36.7c0 .346.278.627.622.627h9.29c.344 0 .623-.28.623-.627v-8.016a.624.624 0 00-.622-.627zm-.622 8.017H9.87v-6.764h8.046v6.764z" fill="#fff"/><path d="M15.885 22.046h-1.369v-1.378a.624.624 0 00-.622-.626.624.624 0 00-.622.626v1.378h-1.369a.624.624 0 00-.622.626c0 .346.279.627.622.627h1.37v1.378c0 .345.278.626.621.626.344 0 .622-.28.622-.627V23.3h1.37c.343 0 .621-.28.621-.627a.624.624 0 00-.622-.626zm11.945 0h-3.98a.624.624 0 00-.623.626c0 .346.279.627.623.627h3.981c.344 0 .622-.28.622-.627a.624.624 0 00-.622-.626zM14.774 32.693l1.551-1.561a.63.63 0 000-.886.62.62 0 00-.88 0l-1.55 1.562-1.552-1.562a.62.62 0 00-.88 0 .63.63 0 000 .886l1.552 1.561-1.552 1.562a.635.635 0 00-.033.85c.233.273.66.29.913.035l1.551-1.561 1.551 1.561c.253.255.68.238.913-.036a.635.635 0 00-.033-.85l-1.55-1.56zm13.496-2.447a.62.62 0 00-.88 0l-3.981 4.009c-.384.385-.105 1.069.44 1.069a.617.617 0 00.44-.184l3.981-4.008a.63.63 0 000-.886zm-3.318.668l-.664-.668a.62.62 0 00-.88 0 .63.63 0 000 .886l.664.668c.253.255.68.238.913-.036a.635.635 0 00-.033-.85zm3.318 3.34l-.663-.668a.62.62 0 00-.88 0 .63.63 0 000 .886l.663.668c.253.255.68.238.913-.036a.635.635 0 00-.033-.85zm0-25.386L24.288 4.86a.62.62 0 00-.88 0l-3.981 4.008a.628.628 0 00-.182.443v4.676c0 .346.278.627.622.627h2.654c.344 0 .622-.28.622-.627v-2.046h1.41v2.046c0 .346.28.627.623.627h2.654c.344 0 .622-.28.622-.627V9.311a.629.629 0 00-.182-.443zm-1.062 4.493h-1.41v-2.046a.624.624 0 00-.622-.626H22.52a.624.624 0 00-.622.626v2.046h-1.41v-3.79l3.36-3.383 3.359 3.382v3.791zM16.989 5.528a.62.62 0 00-.88 0l-4.977 5.01c-.383.386-.104 1.07.44 1.07a.621.621 0 00.44-.184l4.977-5.01a.63.63 0 000-.886zm.663 4.008a.62.62 0 00-.88 0l-1.99 2.004a.635.635 0 00-.034.85c.233.274.66.29.913.036l1.991-2.004a.629.629 0 000-.886z" fill="#FCDB50"/></svg>
